X:94
T: UNS LANDWEHRMAENNERN
N: B0581
O: Europa, Mitteleuropa, Deutschland
R: Staende -, Soldaten - Lied, national
M: 4/4
L: 1/8
K: Bb
FGA | B2B2cBAB | c2
FAc2Bc | d2B2e2d2 | c4z
FGA | B2d2cBAB | c2
FAc2e2 | d3ABcd=e | f4z3
F | c2Bcd2B2 | B2B2cd2
B | e2ddg2fe | d2c2B3
F | c2Bcd2B2 | B2Bcd3
B | e2ddg2fe | d2c2B

@@@ Tune index: 2312
